2024/event/img/day2_mono.svg

<svg width="80" height="46" viewBox="0 0 80 46" fill="none" xmlns="http://www.w3.org/2000/svg">
<mask id="path-1-outside-1_3196_2592" maskUnits="userSpaceOnUse" x="10" y="12" width="56" height="28" fill="black">
<rect fill="white" x="10" y="12" width="56" height="28"/>
<path d="M11.376 37V34.856C18.352 28.712 21.904 24.136 21.904 20.264C21.904 17.736 20.56 15.976 17.936 15.976C16.08 15.976 14.544 17.128 13.296 18.568L11.184 16.552C13.232 14.344 15.312 13.032 18.384 13.032C22.704 13.032 25.488 15.816 25.488 20.104C25.488 24.616 21.84 29.32 16.848 34.12C18.064 33.992 19.568 33.864 20.72 33.864H26.608V37H11.376ZM31.57 21.42H45.05V38.4H43.03V23.32H33.51V38.46H31.57V21.42ZM32.89 28.26H43.87V30.12H32.89V28.26ZM32.87 35.26H43.89V37.16H32.87V35.26ZM52.59 25.98H63.85V27.78H52.59V25.98ZM52.59 30.68H63.85V32.48H52.59V30.68ZM52.59 35.38H63.85V37.22H52.59V35.38ZM51.25 21.3H65.13V38.54H63.13V23.16H53.15V38.54H51.25V21.3Z"/>
</mask>
<path d="M11.376 37V34.856C18.352 28.712 21.904 24.136 21.904 20.264C21.904 17.736 20.56 15.976 17.936 15.976C16.08 15.976 14.544 17.128 13.296 18.568L11.184 16.552C13.232 14.344 15.312 13.032 18.384 13.032C22.704 13.032 25.488 15.816 25.488 20.104C25.488 24.616 21.84 29.32 16.848 34.12C18.064 33.992 19.568 33.864 20.72 33.864H26.608V37H11.376ZM31.57 21.42H45.05V38.4H43.03V23.32H33.51V38.46H31.57V21.42ZM32.89 28.26H43.87V30.12H32.89V28.26ZM32.87 35.26H43.89V37.16H32.87V35.26ZM52.59 25.98H63.85V27.78H52.59V25.98ZM52.59 30.68H63.85V32.48H52.59V30.68ZM52.59 35.38H63.85V37.22H52.59V35.38ZM51.25 21.3H65.13V38.54H63.13V23.16H53.15V38.54H51.25V21.3Z" fill="white"/>
<path d="M11.376 37H10.876V37.5H11.376V37ZM11.376 34.856L11.0455 34.4808L10.876 34.6301V34.856H11.376ZM13.296 18.568L12.9508 18.9297L13.3303 19.2919L13.6738 18.8955L13.296 18.568ZM11.184 16.552L10.8174 16.212L10.4822 16.5733L10.8388 16.9137L11.184 16.552ZM16.848 34.12L16.5014 33.7596L15.4508 34.7698L16.9003 34.6173L16.848 34.12ZM26.608 33.864H27.108V33.364H26.608V33.864ZM26.608 37V37.5H27.108V37H26.608ZM11.876 37V34.856H10.876V37H11.876ZM11.7065 35.2312C15.2046 32.1503 17.8676 29.4427 19.659 27.004C21.4473 24.5695 22.404 22.3531 22.404 20.264H21.404C21.404 22.0469 20.5847 24.0545 18.853 26.412C17.1244 28.7653 14.5234 31.4177 11.0455 34.4808L11.7065 35.2312ZM22.404 20.264C22.404 18.9164 22.0457 17.7142 21.2797 16.842C20.5053 15.9603 19.3666 15.476 17.936 15.476V16.476C19.1294 16.476 19.9747 16.8717 20.5283 17.502C21.0903 18.1418 21.404 19.0836 21.404 20.264H22.404ZM17.936 15.476C15.8606 15.476 14.1981 16.7636 12.9182 18.2405L13.6738 18.8955C14.8899 17.4924 16.2994 16.476 17.936 16.476V15.476ZM13.6412 18.2063L11.5292 16.1903L10.8388 16.9137L12.9508 18.9297L13.6412 18.2063ZM11.5506 16.892C13.5405 14.7466 15.4971 13.532 18.384 13.532V12.532C15.1269 12.532 12.9235 13.9414 10.8174 16.212L11.5506 16.892ZM18.384 13.532C20.4347 13.532 22.0759 14.1906 23.203 15.3141C24.33 16.4375 24.988 18.0703 24.988 20.104H25.988C25.988 17.8497 25.254 15.9465 23.909 14.6059C22.5641 13.2654 20.6533 12.532 18.384 12.532V13.532ZM24.988 20.104C24.988 22.2252 24.1295 24.433 22.622 26.7296C21.1157 29.0243 18.9861 31.3705 16.5014 33.7596L17.1946 34.4804C19.7019 32.0695 21.8923 29.6637 23.458 27.2784C25.0225 24.895 25.988 22.4948 25.988 20.104H24.988ZM16.9003 34.6173C18.1137 34.4895 19.5958 34.364 20.72 34.364V33.364C19.5402 33.364 18.0143 33.4945 16.7957 33.6227L16.9003 34.6173ZM20.72 34.364H26.608V33.364H20.72V34.364ZM26.108 33.864V37H27.108V33.864H26.108ZM26.608 36.5H11.376V37.5H26.608V36.5ZM31.57 21.42V20.92H31.07V21.42H31.57ZM45.05 21.42H45.55V20.92H45.05V21.42ZM45.05 38.4V38.9H45.55V38.4H45.05ZM43.03 38.4H42.53V38.9H43.03V38.4ZM43.03 23.32H43.53V22.82H43.03V23.32ZM33.51 23.32V22.82H33.01V23.32H33.51ZM33.51 38.46V38.96H34.01V38.46H33.51ZM31.57 38.46H31.07V38.96H31.57V38.46ZM32.89 28.26V27.76H32.39V28.26H32.89ZM43.87 28.26H44.37V27.76H43.87V28.26ZM43.87 30.12V30.62H44.37V30.12H43.87ZM32.89 30.12H32.39V30.62H32.89V30.12ZM32.87 35.26V34.76H32.37V35.26H32.87ZM43.89 35.26H44.39V34.76H43.89V35.26ZM43.89 37.16V37.66H44.39V37.16H43.89ZM32.87 37.16H32.37V37.66H32.87V37.16ZM31.57 21.92H45.05V20.92H31.57V21.92ZM44.55 21.42V38.4H45.55V21.42H44.55ZM45.05 37.9H43.03V38.9H45.05V37.9ZM43.53 38.4V23.32H42.53V38.4H43.53ZM43.03 22.82H33.51V23.82H43.03V22.82ZM33.01 23.32V38.46H34.01V23.32H33.01ZM33.51 37.96H31.57V38.96H33.51V37.96ZM32.07 38.46V21.42H31.07V38.46H32.07ZM32.89 28.76H43.87V27.76H32.89V28.76ZM43.37 28.26V30.12H44.37V28.26H43.37ZM43.87 29.62H32.89V30.62H43.87V29.62ZM33.39 30.12V28.26H32.39V30.12H33.39ZM32.87 35.76H43.89V34.76H32.87V35.76ZM43.39 35.26V37.16H44.39V35.26H43.39ZM43.89 36.66H32.87V37.66H43.89V36.66ZM33.37 37.16V35.26H32.37V37.16H33.37ZM52.59 25.98V25.48H52.09V25.98H52.59ZM63.85 25.98H64.35V25.48H63.85V25.98ZM63.85 27.78V28.28H64.35V27.78H63.85ZM52.59 27.78H52.09V28.28H52.59V27.78ZM52.59 30.68V30.18H52.09V30.68H52.59ZM63.85 30.68H64.35V30.18H63.85V30.68ZM63.85 32.48V32.98H64.35V32.48H63.85ZM52.59 32.48H52.09V32.98H52.59V32.48ZM52.59 35.38V34.88H52.09V35.38H52.59ZM63.85 35.38H64.35V34.88H63.85V35.38ZM63.85 37.22V37.72H64.35V37.22H63.85ZM52.59 37.22H52.09V37.72H52.59V37.22ZM51.25 21.3V20.8H50.75V21.3H51.25ZM65.13 21.3H65.63V20.8H65.13V21.3ZM65.13 38.54V39.04H65.63V38.54H65.13ZM63.13 38.54H62.63V39.04H63.13V38.54ZM63.13 23.16H63.63V22.66H63.13V23.16ZM53.15 23.16V22.66H52.65V23.16H53.15ZM53.15 38.54V39.04H53.65V38.54H53.15ZM51.25 38.54H50.75V39.04H51.25V38.54ZM52.59 26.48H63.85V25.48H52.59V26.48ZM63.35 25.98V27.78H64.35V25.98H63.35ZM63.85 27.28H52.59V28.28H63.85V27.28ZM53.09 27.78V25.98H52.09V27.78H53.09ZM52.59 31.18H63.85V30.18H52.59V31.18ZM63.35 30.68V32.48H64.35V30.68H63.35ZM63.85 31.98H52.59V32.98H63.85V31.98ZM53.09 32.48V30.68H52.09V32.48H53.09ZM52.59 35.88H63.85V34.88H52.59V35.88ZM63.35 35.38V37.22H64.35V35.38H63.35ZM63.85 36.72H52.59V37.72H63.85V36.72ZM53.09 37.22V35.38H52.09V37.22H53.09ZM51.25 21.8H65.13V20.8H51.25V21.8ZM64.63 21.3V38.54H65.63V21.3H64.63ZM65.13 38.04H63.13V39.04H65.13V38.04ZM63.63 38.54V23.16H62.63V38.54H63.63ZM63.13 22.66H53.15V23.66H63.13V22.66ZM52.65 23.16V38.54H53.65V23.16H52.65ZM53.15 38.04H51.25V39.04H53.15V38.04ZM51.75 38.54V21.3H50.75V38.54H51.75Z" fill="black" mask="url(#path-1-outside-1_3196_2592)"/>
<path d="M8 22H80L72 46H0L8 22Z" fill="#B3B3B3"/>
<path d="M11.376 37V34.856C18.352 28.712 21.904 24.136 21.904 20.264C21.904 17.736 20.56 15.976 17.936 15.976C16.08 15.976 14.544 17.128 13.296 18.568L11.184 16.552C13.232 14.344 15.312 13.032 18.384 13.032C22.704 13.032 25.488 15.816 25.488 20.104C25.488 24.616 21.84 29.32 16.848 34.12C18.064 33.992 19.568 33.864 20.72 33.864H26.608V37H11.376ZM31.57 21.42H45.05V38.4H43.03V23.32H33.51V38.46H31.57V21.42ZM32.89 28.26H43.87V30.12H32.89V28.26ZM32.87 35.26H43.89V37.16H32.87V35.26ZM52.59 25.98H63.85V27.78H52.59V25.98ZM52.59 30.68H63.85V32.48H52.59V30.68ZM52.59 35.38H63.85V37.22H52.59V35.38ZM51.25 21.3H65.13V38.54H63.13V23.16H53.15V38.54H51.25V21.3Z" fill="white"/>
</svg>

<svg xmlns="http://www.w3.org/2000/svg" width="80" height="46" fill="none" viewBox="0 0 80 46"><mask id="a" width="56" height="28" x="10" y="12" fill="#000" maskUnits="userSpaceOnUse"><path fill="#fff" d="M10 12h56v28H10z"/><path d="M11.38 37v-2.14c6.97-6.15 10.52-10.72 10.52-14.6 0-2.52-1.34-4.28-3.96-4.28-1.86 0-3.4 1.15-4.64 2.59l-2.12-2.02c2.05-2.2 4.13-3.52 7.2-3.52 4.32 0 7.1 2.79 7.1 7.07 0 4.52-3.64 9.22-8.63 14.02 1.21-.13 2.72-.26 3.87-.26h5.89V37zm20.19-15.58h13.48V38.4h-2.02V23.32h-9.52v15.14h-1.94zm1.32 6.84h10.98v1.86H32.89zm-.02 7h11.02v1.9H32.87zm19.72-9.28h11.26v1.8H52.59zm0 4.7h11.26v1.8H52.59zm0 4.7h11.26v1.84H52.59zM51.25 21.3h13.88v17.24h-2V23.16h-9.98v15.38h-1.9z"/></mask><path fill="#fff" d="M11.38 37v-2.14c6.97-6.15 10.52-10.72 10.52-14.6 0-2.52-1.34-4.28-3.96-4.28-1.86 0-3.4 1.15-4.64 2.59l-2.12-2.02c2.05-2.2 4.13-3.52 7.2-3.52 4.32 0 7.1 2.79 7.1 7.07 0 4.52-3.64 9.22-8.63 14.02 1.21-.13 2.72-.26 3.87-.26h5.89V37zm20.19-15.58h13.48V38.4h-2.02V23.32h-9.52v15.14h-1.94zm1.32 6.84h10.98v1.86H32.89zm-.02 7h11.02v1.9H32.87zm19.72-9.28h11.26v1.8H52.59zm0 4.7h11.26v1.8H52.59zm0 4.7h11.26v1.84H52.59zM51.25 21.3h13.88v17.24h-2V23.16h-9.98v15.38h-1.9z"/><path fill="#000" d="M11.38 37h-.5v.5h.5zm0-2.14-.33-.38-.17.15v.23zm1.92-16.3-.35.37.38.36.34-.4zm-2.12-2-.36-.35-.34.36.36.34zm5.67 17.56-.35-.36-1.05 1.01 1.45-.15zm9.76-.26h.5v-.5h-.5zm0 3.14v.5h.5V37zm-14.73 0v-2.14h-1V37zm-.17-1.77c3.5-3.08 6.16-5.79 7.95-8.23 1.79-2.43 2.74-4.65 2.74-6.74h-1c0 1.79-.82 3.8-2.55 6.15s-4.33 5-7.8 8.07zm10.7-14.97a5 5 0 0 0-1.13-3.42 4.3 4.3 0 0 0-3.34-1.36v1c1.19 0 2.03.4 2.59 1.02q.85.98.87 2.76zm-4.47-4.78c-2.08 0-3.74 1.28-5.02 2.76l.75.66c1.22-1.4 2.63-2.42 4.27-2.42zm-4.3 2.73-2.11-2.02-.7.72 2.12 2.02zm-2.09-1.32c1.99-2.14 3.95-3.36 6.83-3.36v-1c-3.25 0-5.46 1.41-7.56 3.68zm6.83-3.36c2.05 0 3.7.66 4.82 1.78a6.6 6.6 0 0 1 1.79 4.8h1c0-2.26-.74-4.16-2.08-5.5a7.6 7.6 0 0 0-5.53-2.08zm6.6 6.57c0 2.13-.85 4.33-2.36 6.63a43 43 0 0 1-6.12 7.03l.7.72a44 44 0 0 0 6.26-7.2c1.56-2.39 2.53-4.79 2.53-7.18zM16.9 34.62c1.21-.13 2.7-.26 3.82-.26v-1c-1.18 0-2.7.13-3.92.26zm3.82-.26h5.89v-1h-5.89zm5.39-.5V37h1v-3.14zm.5 2.64H11.38v1H26.6zm4.96-15.08v-.5h-.5v.5zm13.48 0h.5v-.5h-.5zm0 16.98v.5h.5v-.5zm-2.02 0h-.5v.5h.5zm0-15.08h.5v-.5h-.5zm-9.52 0v-.5h-.5v.5zm0 15.14v.5h.5v-.5zm-1.94 0h-.5v.5h.5zm1.32-10.2v-.5h-.5v.5zm10.98 0h.5v-.5h-.5zm0 1.86v.5h.5v-.5zm-10.98 0h-.5v.5h.5zm-.02 5.14v-.5h-.5v.5zm11.02 0h.5v-.5h-.5zm0 1.9v.5h.5v-.5zm-11.02 0h-.5v.5h.5zm-1.3-15.24h13.48v-1H31.57zm12.98-.5V38.4h1V21.42zm.5 16.48h-2.02v1h2.02zm-1.52.5V23.32h-1V38.4zm-.5-15.58h-9.52v1h9.52zm-10.02.5v15.14h1V23.32zm.5 14.64h-1.94v1h1.94zm-1.44.5V21.42h-1v17.04zm.82-9.7h10.98v-1H32.89zm10.48-.5v1.86h1v-1.86zm.5 1.36H32.89v1h10.98zm-10.48.5v-1.86h-1v1.86zm-.52 5.64h11.02v-1H32.87zm10.52-.5v1.9h1v-1.9zm.5 1.4H32.87v1h11.02zm-10.52.5v-1.9h-1v1.9zm19.22-11.18v-.5h-.5v.5zm11.26 0h.5v-.5h-.5zm0 1.8v.5h.5v-.5zm-11.26 0h-.5v.5h.5zm0 2.9v-.5h-.5v.5zm11.26 0h.5v-.5h-.5zm0 1.8v.5h.5v-.5zm-11.26 0h-.5v.5h.5zm0 2.9v-.5h-.5v.5zm11.26 0h.5v-.5h-.5zm0 1.84v.5h.5v-.5zm-11.26 0h-.5v.5h.5zM51.25 21.3v-.5h-.5v.5zm13.88 0h.5v-.5h-.5zm0 17.24v.5h.5v-.5zm-2 0h-.5v.5h.5zm0-15.38h.5v-.5h-.5zm-9.98 0v-.5h-.5v.5zm0 15.38v.5h.5v-.5zm-1.9 0h-.5v.5h.5zm1.34-12.06h11.26v-1H52.59zm10.76-.5v1.8h1v-1.8zm.5 1.3H52.59v1h11.26zm-10.76.5v-1.8h-1v1.8zm-.5 3.4h11.26v-1H52.59zm10.76-.5v1.8h1v-1.8zm.5 1.3H52.59v1h11.26zm-10.76.5v-1.8h-1v1.8zm-.5 3.4h11.26v-1H52.59zm10.76-.5v1.84h1v-1.84zm.5 1.34H52.59v1h11.26zm-10.76.5v-1.84h-1v1.84zM51.25 21.8h13.88v-1H51.25zm13.38-.5v17.24h1V21.3zm.5 16.74h-2v1h2zm-1.5.5V23.16h-1v15.38zm-.5-15.88h-9.98v1h9.98zm-10.48.5v15.38h1V23.16zm.5 14.88h-1.9v1h1.9zm-1.4.5V21.3h-1v17.24z" mask="url(#a)"/><path fill="#b3b3b3" d="M8 22h72l-8 24H0z"/><path fill="#fff" d="M11.38 37v-2.14c6.97-6.15 10.52-10.72 10.52-14.6 0-2.52-1.34-4.28-3.96-4.28-1.86 0-3.4 1.15-4.64 2.59l-2.12-2.02c2.05-2.2 4.13-3.52 7.2-3.52 4.32 0 7.1 2.79 7.1 7.07 0 4.52-3.64 9.22-8.63 14.02 1.21-.13 2.72-.26 3.87-.26h5.89V37zm20.19-15.58h13.48V38.4h-2.02V23.32h-9.52v15.14h-1.94zm1.32 6.84h10.98v1.86H32.89zm-.02 7h11.02v1.9H32.87zm19.72-9.28h11.26v1.8H52.59zm0 4.7h11.26v1.8H52.59zm0 4.7h11.26v1.84H52.59zM51.25 21.3h13.88v17.24h-2V23.16h-9.98v15.38h-1.9z"/></svg>
